; G-Code generated by Simplify3D(R) Version 4.1.2
; Mar 29, 2023 at 9:40:27 PM
; Settings Summary
;   processName,Process1
;   applyToModels,Peca ensaio Luanne
;   profileName,CORE A1v2 PLA - Ensaio Glissoi 30-02-2023
;   profileVersion,2023-03-29 21:36:18
;   baseProfile,ABS Q. MEDIA
;   printMaterial,
;   printQuality,
;   printExtruders,
;   extruderName,Extruder 1
;   extruderToolheadNumber,0
;   extruderDiameter,0.4
;   extruderAutoWidth,0
;   extruderWidth,0.44
;   extrusionMultiplier,1
;   extruderUseRetract,1
;   extruderRetractionDistance,3.5
;   extruderExtraRestartDistance,0
;   extruderRetractionZLift,0
;   extruderRetractionSpeed,3600
;   extruderUseCoasting,1
;   extruderCoastingDistance,0.1
;   extruderUseWipe,1
;   extruderWipeDistance,2
;   primaryExtruder,0
;   layerHeight,0.4
;   topSolidLayers,9
;   bottomSolidLayers,6
;   perimeterOutlines,3
;   printPerimetersInsideOut,0
;   startPointOption,3
;   startPointOriginX,0
;   startPointOriginY,0
;   sequentialIslands,0
;   spiralVaseMode,0
;   firstLayerHeightPercentage,100
;   firstLayerWidthPercentage,125
;   firstLayerUnderspeed,1
;   useRaft,0
;   raftExtruder,0
;   raftTopLayers,3
;   raftBaseLayers,2
;   raftOffset,3
;   raftSeparationDistance,0.14
;   raftTopInfill,100
;   aboveRaftSpeedMultiplier,0.3
;   useSkirt,1
;   skirtExtruder,0
;   skirtLayers,1
;   skirtOutlines,2
;   skirtOffset,4
;   usePrimePillar,0
;   primePillarExtruder,999
;   primePillarWidth,12
;   primePillarLocation,7
;   primePillarSpeedMultiplier,1
;   useOozeShield,0
;   oozeShieldExtruder,999
;   oozeShieldOffset,2
;   oozeShieldOutlines,1
;   oozeShieldSidewallShape,1
;   oozeShieldSidewallAngle,30
;   oozeShieldSpeedMultiplier,1
;   infillExtruder,0
;   internalInfillPattern,Rectilinear
;   externalInfillPattern,Rectilinear
;   infillPercentage,20
;   outlineOverlapPercentage,15
;   infillExtrusionWidthPercentage,100
;   minInfillLength,5
;   infillLayerInterval,2
;   internalInfillAngles,45,-45
;   overlapInternalInfillAngles,0
;   externalInfillAngles,45,-45
;   generateSupport,0
;   supportExtruder,0
;   supportInfillPercentage,30
;   supportExtraInflation,0.4
;   supportBaseLayers,0
;   denseSupportExtruder,0
;   denseSupportLayers,0
;   denseSupportInfillPercentage,70
;   supportLayerInterval,2
;   supportHorizontalPartOffset,0.4
;   supportUpperSeparationLayers,1
;   supportLowerSeparationLayers,1
;   supportType,0
;   supportGridSpacing,4
;   maxOverhangAngle,60
;   supportAngles,45
;   temperatureName,Extruder 1 Temperature,Heated Bed
;   temperatureNumber,0,0
;   temperatureSetpointCount,2,1
;   temperatureSetpointLayers,1,2,1
;   temperatureSetpointTemperatures,180,180,60
;   temperatureStabilizeAtStartup,1,1
;   temperatureHeatedBed,0,1
;   fanLayers,1,3
;   fanSpeeds,0,100
;   blipFanToFullPower,1
;   adjustSpeedForCooling,0
;   minSpeedLayerTime,25
;   minCoolingSpeedSlowdown,40
;   increaseFanForCooling,1
;   minFanLayerTime,45
;   maxCoolingFanSpeed,100
;   increaseFanForBridging,1
;   bridgingFanSpeed,100
;   use5D,1
;   relativeEdistances,0
;   allowEaxisZeroing,1
;   independentExtruderAxes,0
;   includeM10123,0
;   stickySupport,1
;   applyToolheadOffsets,0
;   gcodeXoffset,0
;   gcodeYoffset,0
;   gcodeZoffset,0
;   overrideMachineDefinition,1
;   machineTypeOverride,0
;   strokeXoverride,300
;   strokeYoverride,200
;   strokeZoverride,300
;   originOffsetXoverride,0
;   originOffsetYoverride,0
;   originOffsetZoverride,0
;   homeXdirOverride,-1
;   homeYdirOverride,-1
;   homeZdirOverride,-1
;   flipXoverride,1
;   flipYoverride,-1
;   flipZoverride,1
;   toolheadOffsets,0,0|0,0|0,0|0,0|0,0|0,0
;   overrideFirmwareConfiguration,0
;   firmwareTypeOverride,RepRap (Marlin/Repetier/Sprinter)
;   GPXconfigOverride,r2
;   baudRateOverride,115200
;   overridePrinterModels,0
;   printerModelsOverride
;   startingGcode,M109 S100; FAZ AQUECIMENTO DO BICO,M402,G28; HOME GERAL,M400,G29 V4 T ; AUTO NIVELAMENTO,M400,M104 S[extruder0_temperature]; FAZ PRE AQUECIMENTO DO BICO,G1 X1 Y1 Z0.8 F1000; VAI PRA PONTO DE PURGA,M109 S[extruder0_temperature]; FAZ AQUECIMENTO DO BICO,G92 E0; RESETA EXTRUSOR,G1 X1.0 E9.0 F1000.0 ; PURGA,G1 X100.0 E12.5 F1000.0 ; PURGA,M117 IMPRIMINDO...,M400,
;   layerChangeGcode,
;   retractionGcode,
;   toolChangeGcode,
;   endingGcode,M107 ; DESLIGA FAN,G1 E-9.0 F1000.0 ; RETRAIR,G1 Z300,G1 Y100,G1 X-8,M104 S0 ; DESLIGA AQUECIMENTO BICO,M140 S0 ; DESLIGA AQUECIMENTO MESA,M84 ; DESLIGA MOTORES,M300 S4 P1000 ; GERA BEEP
;   exportFileFormat,gcode
;   celebration,0
;   celebrationSong,Star Wars
;   postProcessing,
;   defaultSpeed,1200
;   outlineUnderspeed,1
;   solidInfillUnderspeed,1
;   supportUnderspeed,1
;   rapidXYspeed,9000
;   rapidZspeed,2400
;   minBridgingArea,5
;   bridgingExtraInflation,2
;   bridgingExtrusionMultiplier,0.9
;   bridgingSpeedMultiplier,1
;   useFixedBridgingAngle,0
;   fixedBridgingAngle,0
;   applyBridgingToPerimeters,1
;   filamentDiameters,1.74|1.74|1.74|1.74|1.74|1.74
;   filamentPricesPerKg,120|120|120|120|120|120
;   filamentDensities,1.08|1.25|1.25|1.25|1.25|1.25
;   useMinPrintHeight,0
;   minPrintHeight,0
;   useMaxPrintHeight,0
;   maxPrintHeight,0
;   useDiaphragm,0
;   diaphragmLayerInterval,20
;   robustSlicing,1
;   mergeAllIntoSolid,0
;   onlyRetractWhenCrossingOutline,1
;   retractBetweenLayers,1
;   useRetractionMinTravel,0
;   retractionMinTravel,3
;   retractWhileWiping,0
;   onlyWipeOutlines,1
;   avoidCrossingOutline,0
;   maxMovementDetourFactor,3
;   toolChangeRetractionDistance,12
;   toolChangeExtraRestartDistance,-0.5
;   toolChangeRetractionSpeed,600
;   externalThinWallType,1
;   internalThinWallType,1
;   thinWallAllowedOverlapPercentage,30
;   singleExtrusionMinLength,1
;   singleExtrusionMinPrintingWidthPercentage,50
;   singleExtrusionMaxPrintingWidthPercentage,200
;   singleExtrusionEndpointExtension,0.2
;   horizontalSizeCompensation,0
G90
M82
M106 S0
M140 S60
M190 S60
M109 S100; FAZ AQUECIMENTO DO BICO
M402
G28; HOME GERAL
M400
G29 V4 T ; AUTO NIVELAMENTO
M400
M104 S180; FAZ PRE AQUECIMENTO DO BICO
G1 X1 Y1 Z0.8 F1000; VAI PRA PONTO DE PURGA
M109 S180; FAZ AQUECIMENTO DO BICO
G92 E0; RESETA EXTRUSOR
G1 X1.0 E9.0 F1000.0 ; PURGA
G1 X100.0 E12.5 F1000.0 ; PURGA
M117 IMPRIMINDO...
M400
; process Process1
; layer 1, Z = 0.400
T0
G92 E0.0000
G1 E-3.5000 F3600
; feature skirt
; tool H0.400 W0.550
G1 Z0.400 F2400
G1 X127.162 Y85.205 F9000
G1 E0.0000 F3600
G92 E0.0000
G1 X129.988 Y82.378 E0.3698 F1200
G1 X158.985 Y82.378 E3.0526
G1 X161.812 Y85.205 E3.4224
G1 X161.812 Y114.202 E6.1053
G1 X158.985 Y117.028 E6.4751
G1 X129.988 Y117.028 E9.1579
G1 X127.162 Y114.202 E9.5277
G1 X127.162 Y85.205 E12.2105
G92 E0.0000
G1 E-3.5000 F3600
G1 X127.712 Y85.433 F9000
G1 E0.0000 F3600
G92 E0.0000
G1 X130.216 Y82.928 E0.3277 F1200
G1 X158.757 Y82.928 E2.9683
G1 X161.262 Y85.433 E3.2960
G1 X161.262 Y113.974 E5.9366
G1 X158.757 Y116.478 E6.2643
G1 X130.216 Y116.478 E8.9049
G1 X127.712 Y113.974 E9.2326
G1 X127.712 Y85.433 E11.8733
G92 E0.0000
G1 E-3.5000 F3600
; feature outer perimeter
G1 X132.262 Y87.478 F9000
G1 E0.0000 F3600
G92 E0.0000
G1 X156.712 Y87.478 E2.2621 F1200
G1 X156.712 Y111.928 E4.5242
G1 X132.262 Y111.928 E6.7863
G1 X132.262 Y87.578 E9.0392
G1 X132.262 Y87.478 F1200
G1 X134.262 Y87.478 F1200
; feature inner perimeter
G1 X132.812 Y88.028 F9000
G92 E0.0000
G1 X156.162 Y88.028 E2.1603 F1200
G1 X156.162 Y111.378 E4.3207
G1 X132.812 Y111.378 E6.4810
G1 X132.812 Y88.128 E8.6321
G1 X132.812 Y88.028 F1200
G1 X133.362 Y88.578 F9000
G92 E0.0000
G1 X155.612 Y88.578 E2.0586 F1200
G1 X155.612 Y110.828 E4.1171
G1 X133.362 Y110.828 E6.1757
G1 X133.362 Y88.678 E8.2250
G1 X133.362 Y88.578 F1200
; feature solid layer
G1 X154.830 Y89.046 F9000
G92 E0.0000
G1 X155.144 Y89.360 E0.0411 F1200
G1 X155.144 Y90.138 E0.1130
G1 X154.052 Y89.046 E0.2559
G1 X153.275 Y89.046 E0.3278
G1 X155.144 Y90.916 E0.5725
G1 X155.144 Y91.693 E0.6444
G1 X152.497 Y89.046 E0.9908
G1 X151.719 Y89.046 E1.0628
G1 X155.144 Y92.471 E1.5109
G1 X155.144 Y93.249 E1.5829
G1 X150.941 Y89.046 E2.1328
G1 X150.163 Y89.046 E2.2048
G1 X155.144 Y94.027 E2.8565
G1 X155.144 Y94.805 E2.9285
G1 X149.385 Y89.046 E3.6819
G1 X148.608 Y89.046 E3.7539
G1 X155.144 Y95.582 E4.6091
G1 X155.144 Y96.360 E4.6811
G1 X147.830 Y89.046 E5.6381
G1 X147.052 Y89.046 E5.7101
G1 X155.144 Y97.138 E6.7689
G1 X155.144 Y97.916 E6.8408
G1 X146.274 Y89.046 E8.0014
G1 X145.496 Y89.046 E8.0734
G1 X155.144 Y98.694 E9.3357
G1 X155.144 Y99.472 E9.4077
G1 X144.719 Y89.046 E10.7718
G1 X143.941 Y89.046 E10.8437
G1 X155.144 Y100.249 E12.3096
G1 X155.144 Y101.027 E12.3816
G1 X143.163 Y89.046 E13.9492
G1 X142.385 Y89.046 E14.0212
G1 X155.144 Y101.805 E15.6906
G1 X155.144 Y102.583 E15.7626
G1 X141.607 Y89.046 E17.5338
G1 X140.830 Y89.046 E17.6057
G1 X155.144 Y103.361 E19.4787
G1 X155.144 Y104.138 E19.5506
G1 X140.052 Y89.046 E21.5254
G1 X139.274 Y89.046 E21.5973
G1 X155.144 Y104.916 E23.6739
G1 X155.144 Y105.694 E23.7458
G1 X138.496 Y89.046 E25.9241
G1 X137.718 Y89.046 E25.9961
G1 X155.144 Y106.472 E28.2761
G1 X155.144 Y107.250 E28.3481
G1 X136.940 Y89.046 E30.7299
G1 X136.163 Y89.046 E30.8019
G1 X155.144 Y108.028 E33.2854
G1 X155.144 Y108.805 E33.3574
G1 X135.385 Y89.046 E35.9428
G1 X134.607 Y89.046 E36.0147
G1 X155.144 Y109.583 E20.0000 ; Alterado
G1 X155.144 Y110.361 E38.7738
G1 X133.829 Y89.046 E41.5627
G1 X133.829 Y89.824 E41.6347
G1 X154.366 Y110.361 E44.3219
G1 X153.589 Y110.361 E44.3938
G1 X133.829 Y90.602 E46.9792
G1 X133.829 Y91.379 E47.0511
G1 X152.811 Y110.361 E49.5347
G1 X152.033 Y110.361 E49.6067
G1 X133.829 Y92.157 E51.9885
G1 X133.829 Y92.935 E52.0605
G1 X151.255 Y110.361 E54.3405
G1 X150.477 Y110.361 E54.4125
G1 X133.829 Y93.713 E56.5908
G1 X133.829 Y94.491 E56.6628
G1 X149.699 Y110.361 E58.7393
G1 X148.922 Y110.361 E58.8112
G1 X133.829 Y95.268 E60.7860
G1 X133.829 Y96.046 E60.8579
G1 X148.144 Y110.361 E62.7309
G1 X147.366 Y110.361 E62.8029
G1 X133.829 Y96.824 E64.5741
G1 X133.829 Y97.602 E64.6460
G1 X146.588 Y110.361 E66.3154
G1 X145.810 Y110.361 E66.3874
G1 X133.829 Y98.380 E67.9551
G1 X133.829 Y99.158 E68.0270
G1 X145.033 Y110.361 E69.4929
G1 X144.255 Y110.361 E69.5649
G1 X133.829 Y99.935 E70.9290
G1 X133.829 Y100.713 E71.0009
G1 X143.477 Y110.361 E72.2633
G1 X142.699 Y110.361 E72.3352
G1 X133.829 Y101.491 E73.4958
G1 X133.829 Y102.269 E73.5678
G1 X141.921 Y110.361 E74.6266
G1 X141.143 Y110.361 E74.6985
G1 X133.829 Y103.047 E75.6555
G1 X133.829 Y103.824 E75.7275
G1 X140.366 Y110.361 E76.5828
G1 X139.588 Y110.361 E76.6547
G1 X133.829 Y104.602 E77.4082
G1 X133.829 Y105.380 E77.4802
G1 X138.810 Y110.361 E78.1319
G1 X138.032 Y110.361 E78.2038
G1 X133.829 Y106.158 E78.7538
G1 X133.829 Y106.936 E78.8257
G1 X137.254 Y110.361 E79.2739
G1 X136.477 Y110.361 E79.3459
G1 X133.829 Y107.714 E79.6923
G1 X133.829 Y108.491 E79.7642
G1 X135.699 Y110.361 E80.0088
G1 X134.921 Y110.361 E80.0808
G1 X133.829 Y109.269 E80.2237
G1 X133.829 Y110.047 E80.2956
G1 X134.072 Y110.290 E80.3274
G1 X134.143 Y110.361 F1200
G92 E0.0000
G1 E-3.5000 F3600
; layer end
M107 ; DESLIGA FAN
G1 E-9.0 F1000.0 ; RETRAIR
G1 Z300
G1 Y100
G1 X-8
M104 S0 ; DESLIGA AQUECIMENTO BICO
M140 S0 ; DESLIGA AQUECIMENTO MESA
M84 ; DESLIGA MOTORES
M300 S4 P1000 ; GERA BEEP
; Build Summary
;   Build time: 0 hours 1 minute
;   Filament length: 130.3 mm (0.13 m)
;   Plastic volume: 309.85 mm^3 (0.31 cc)
;   Plastic weight: 0.33 g (0.00 lb)
;   Material cost: 0.04
