; G-Code generated by Simplify3D(R) Version 4.1.2
; Mar 29, 2023 at 9:43:07 PM
; Settings Summary
;   processName,Process1
;   applyToModels,Peca ensaio Luanne
;   profileName,CORE A1v2 PLA - Ensaio Glissoi 30-02-2023
;   profileVersion,2023-03-29 21:36:18
;   baseProfile,ABS Q. MEDIA
;   printMaterial,
;   printQuality,
;   printExtruders,
;   extruderName,Extruder 1
;   extruderToolheadNumber,0
;   extruderDiameter,0.4
;   extruderAutoWidth,0
;   extruderWidth,0.44
;   extrusionMultiplier,1
;   extruderUseRetract,1
;   extruderRetractionDistance,3.5
;   extruderExtraRestartDistance,0
;   extruderRetractionZLift,0
;   extruderRetractionSpeed,3600
;   extruderUseCoasting,1
;   extruderCoastingDistance,0.1
;   extruderUseWipe,1
;   extruderWipeDistance,2
;   primaryExtruder,0
;   layerHeight,0.4
;   topSolidLayers,9
;   bottomSolidLayers,6
;   perimeterOutlines,3
;   printPerimetersInsideOut,0
;   startPointOption,3
;   startPointOriginX,0
;   startPointOriginY,0
;   sequentialIslands,0
;   spiralVaseMode,0
;   firstLayerHeightPercentage,100
;   firstLayerWidthPercentage,125
;   firstLayerUnderspeed,1
;   useRaft,0
;   raftExtruder,0
;   raftTopLayers,3
;   raftBaseLayers,2
;   raftOffset,3
;   raftSeparationDistance,0.14
;   raftTopInfill,100
;   aboveRaftSpeedMultiplier,0.3
;   useSkirt,1
;   skirtExtruder,0
;   skirtLayers,1
;   skirtOutlines,2
;   skirtOffset,4
;   usePrimePillar,0
;   primePillarExtruder,999
;   primePillarWidth,12
;   primePillarLocation,7
;   primePillarSpeedMultiplier,1
;   useOozeShield,0
;   oozeShieldExtruder,999
;   oozeShieldOffset,2
;   oozeShieldOutlines,1
;   oozeShieldSidewallShape,1
;   oozeShieldSidewallAngle,30
;   oozeShieldSpeedMultiplier,1
;   infillExtruder,0
;   internalInfillPattern,Rectilinear
;   externalInfillPattern,Rectilinear
;   infillPercentage,20
;   outlineOverlapPercentage,15
;   infillExtrusionWidthPercentage,100
;   minInfillLength,5
;   infillLayerInterval,2
;   internalInfillAngles,45,-45
;   overlapInternalInfillAngles,0
;   externalInfillAngles,45,-45
;   generateSupport,0
;   supportExtruder,0
;   supportInfillPercentage,30
;   supportExtraInflation,0.4
;   supportBaseLayers,0
;   denseSupportExtruder,0
;   denseSupportLayers,0
;   denseSupportInfillPercentage,70
;   supportLayerInterval,2
;   supportHorizontalPartOffset,0.4
;   supportUpperSeparationLayers,1
;   supportLowerSeparationLayers,1
;   supportType,0
;   supportGridSpacing,4
;   maxOverhangAngle,60
;   supportAngles,45
;   temperatureName,Extruder 1 Temperature,Heated Bed
;   temperatureNumber,0,0
;   temperatureSetpointCount,2,1
;   temperatureSetpointLayers,1,2,1
;   temperatureSetpointTemperatures,180,180,60
;   temperatureStabilizeAtStartup,1,1
;   temperatureHeatedBed,0,1
;   fanLayers,1,3
;   fanSpeeds,0,100
;   blipFanToFullPower,1
;   adjustSpeedForCooling,0
;   minSpeedLayerTime,25
;   minCoolingSpeedSlowdown,40
;   increaseFanForCooling,1
;   minFanLayerTime,45
;   maxCoolingFanSpeed,100
;   increaseFanForBridging,1
;   bridgingFanSpeed,100
;   use5D,1
;   relativeEdistances,0
;   allowEaxisZeroing,1
;   independentExtruderAxes,0
;   includeM10123,0
;   stickySupport,1
;   applyToolheadOffsets,0
;   gcodeXoffset,0
;   gcodeYoffset,0
;   gcodeZoffset,0
;   overrideMachineDefinition,1
;   machineTypeOverride,0
;   strokeXoverride,300
;   strokeYoverride,200
;   strokeZoverride,300
;   originOffsetXoverride,0
;   originOffsetYoverride,0
;   originOffsetZoverride,0
;   homeXdirOverride,-1
;   homeYdirOverride,-1
;   homeZdirOverride,-1
;   flipXoverride,1
;   flipYoverride,-1
;   flipZoverride,1
;   toolheadOffsets,0,0|0,0|0,0|0,0|0,0|0,0
;   overrideFirmwareConfiguration,0
;   firmwareTypeOverride,RepRap (Marlin/Repetier/Sprinter)
;   GPXconfigOverride,r2
;   baudRateOverride,115200
;   overridePrinterModels,0
;   printerModelsOverride
;   startingGcode,M109 S100; FAZ AQUECIMENTO DO BICO,M402,G28; HOME GERAL,M400,G29 V4 T ; AUTO NIVELAMENTO,M400,M104 S[extruder0_temperature]; FAZ PRE AQUECIMENTO DO BICO,G1 X1 Y1 Z0.8 F1000; VAI PRA PONTO DE PURGA,M109 S[extruder0_temperature]; FAZ AQUECIMENTO DO BICO,G92 E0; RESETA EXTRUSOR,G1 X1.0 E9.0 F1000.0 ; PURGA,G1 X100.0 E12.5 F1000.0 ; PURGA,M117 IMPRIMINDO...,M400,
;   layerChangeGcode,
;   retractionGcode,
;   toolChangeGcode,
;   endingGcode,M107 ; DESLIGA FAN,G1 E-9.0 F1000.0 ; RETRAIR,G1 Z300,G1 Y100,G1 X-8,M104 S0 ; DESLIGA AQUECIMENTO BICO,M140 S0 ; DESLIGA AQUECIMENTO MESA,M84 ; DESLIGA MOTORES,M300 S4 P1000 ; GERA BEEP
;   exportFileFormat,gcode
;   celebration,0
;   celebrationSong,Star Wars
;   postProcessing,
;   defaultSpeed,1200
;   outlineUnderspeed,1
;   solidInfillUnderspeed,1
;   supportUnderspeed,1
;   rapidXYspeed,9000
;   rapidZspeed,2400
;   minBridgingArea,5
;   bridgingExtraInflation,2
;   bridgingExtrusionMultiplier,0.9
;   bridgingSpeedMultiplier,1
;   useFixedBridgingAngle,0
;   fixedBridgingAngle,0
;   applyBridgingToPerimeters,1
;   filamentDiameters,1.74|1.74|1.74|1.74|1.74|1.74
;   filamentPricesPerKg,120|120|120|120|120|120
;   filamentDensities,1.08|1.25|1.25|1.25|1.25|1.25
;   useMinPrintHeight,0
;   minPrintHeight,0
;   useMaxPrintHeight,0
;   maxPrintHeight,0
;   useDiaphragm,0
;   diaphragmLayerInterval,20
;   robustSlicing,1
;   mergeAllIntoSolid,0
;   onlyRetractWhenCrossingOutline,1
;   retractBetweenLayers,1
;   useRetractionMinTravel,0
;   retractionMinTravel,3
;   retractWhileWiping,0
;   onlyWipeOutlines,1
;   avoidCrossingOutline,0
;   maxMovementDetourFactor,3
;   toolChangeRetractionDistance,12
;   toolChangeExtraRestartDistance,-0.5
;   toolChangeRetractionSpeed,600
;   externalThinWallType,1
;   internalThinWallType,1
;   thinWallAllowedOverlapPercentage,30
;   singleExtrusionMinLength,1
;   singleExtrusionMinPrintingWidthPercentage,50
;   singleExtrusionMaxPrintingWidthPercentage,200
;   singleExtrusionEndpointExtension,0.2
;   horizontalSizeCompensation,0
G90
M82
M106 S0
M140 S60
M190 S60
M109 S100; FAZ AQUECIMENTO DO BICO
M402
G28; HOME GERAL
M400
G29 V4 T ; AUTO NIVELAMENTO
M400
M104 S180; FAZ PRE AQUECIMENTO DO BICO
G1 X1 Y1 Z0.8 F1000; VAI PRA PONTO DE PURGA
M109 S180; FAZ AQUECIMENTO DO BICO
G92 E0; RESETA EXTRUSOR
G1 X1.0 E9.0 F1000.0 ; PURGA
G1 X100.0 E12.5 F1000.0 ; PURGA
M117 IMPRIMINDO...
M400
; process Process1
; layer 1, Z = 0.400
T0
G92 E0.0000
G1 E-3.5000 F3600
; feature skirt
; tool H0.400 W0.550
G1 Z0.400 F2400
G1 X49.662 Y7.705 F9000
G1 E0.0000 F3600
G92 E0.0000
G1 X52.488 Y4.879 E0.3698 F1200
G1 X236.485 Y4.879 E17.3932
G1 X239.312 Y7.705 E17.7630
G1 X239.312 Y191.702 E34.7864
G1 X236.485 Y194.528 E35.1562
G1 X52.488 Y194.528 E52.1795
G1 X49.662 Y191.702 E52.5494
G1 X49.662 Y7.705 E69.5727
G92 E0.0000
G1 E-3.5000 F3600
G1 X50.212 Y7.933 F9000
G1 E0.0000 F3600
G92 E0.0000
G1 X52.716 Y5.429 E0.3277 F1200
G1 X236.257 Y5.429 E17.3089
G1 X238.762 Y7.933 E17.6365
G1 X238.762 Y191.474 E34.6177
G1 X236.257 Y193.978 E34.9454
G1 X52.716 Y193.978 E51.9266
G1 X50.212 Y191.474 E52.2543
G1 X50.212 Y7.933 E69.2355
G92 E0.0000
G1 E-3.5000 F3600
; feature outer perimeter
G1 X54.762 Y9.979 F9000
G1 E0.0000 F3600
G92 E0.0000
G1 X234.212 Y9.979 E16.6027 F1200
G1 X234.212 Y189.428 E33.2053
G1 X54.762 Y189.428 E49.8080
G1 X54.762 Y10.079 E66.4014
G1 X54.762 Y9.979 F1200
G1 X56.762 Y9.979 F1200
; feature inner perimeter
G1 X55.312 Y10.529 F9000
G92 E0.0000
G1 X233.662 Y10.529 E16.5009 F1200
G1 X233.662 Y188.878 E33.0018
G1 X55.312 Y188.878 E49.5027
G1 X55.312 Y10.629 E65.9943
G1 X55.312 Y10.529 F1200
G1 X55.862 Y11.079 F9000
G92 E0.0000
G1 X233.112 Y11.079 E16.3991 F1200
G1 X233.112 Y188.328 E32.7982
G1 X55.862 Y188.328 E49.1973
G1 X55.862 Y11.179 E65.5872
G1 X55.862 Y11.079 F1200
; feature solid layer
G1 X232.116 Y11.546 F9000
G92 E0.0000
G1 X232.644 Y12.074 E0.0691 F1200
G1 X232.644 Y12.852 E0.1411
G1 X231.338 Y11.546 E0.3120
G1 X230.560 Y11.546 E0.3839
G1 X232.644 Y13.630 E0.6566
G1 X232.644 Y14.408 E0.7285
G1 X229.782 Y11.546 E1.1030
G1 X229.005 Y11.546 E1.1749
G1 X232.644 Y15.185 E1.6511
G1 X232.644 Y15.963 E1.7231
G1 X228.227 Y11.546 E2.3010
G1 X227.449 Y11.546 E2.3730
G1 X232.644 Y16.741 E3.0527
G1 X232.644 Y17.519 E3.1247
G1 X226.671 Y11.546 E3.9062
G1 X225.893 Y11.546 E3.9782
G1 X232.644 Y18.297 E4.8615
G1 X232.644 Y19.075 E4.9334
G1 X225.116 Y11.546 E5.9185
G1 X224.338 Y11.546 E5.9904
G1 X232.644 Y19.852 E7.0773
G1 X232.644 Y20.630 E7.1492
G1 X223.560 Y11.546 E8.3378
G1 X222.782 Y11.546 E8.4098
G1 X232.644 Y21.408 E9.7002
G1 X232.644 Y22.186 E9.7721
G1 X222.004 Y11.546 E11.1643
G1 X221.227 Y11.546 E11.2362
G1 X232.644 Y22.964 E12.7301
G1 X232.644 Y23.741 E12.8021
G1 X220.449 Y11.546 E14.3978
G1 X219.671 Y11.546 E14.4698
G1 X232.644 Y24.519 E16.1672
G1 X232.644 Y25.297 E16.2392
G1 X218.893 Y11.546 E18.0384
G1 X218.115 Y11.546 E18.1104
G1 X232.644 Y26.075 E20.0114
G1 X232.644 Y26.853 E20.0833
G1 X217.337 Y11.546 E22.0861
G1 X216.560 Y11.546 E22.1581
G1 X232.644 Y27.631 E24.2626
G1 X232.644 Y28.408 E24.3346
G1 X215.782 Y11.546 E26.5409
G1 X215.004 Y11.546 E26.6128
G1 X232.644 Y29.186 E28.9209
G1 X232.644 Y29.964 E28.9929
G1 X214.226 Y11.546 E31.4027
G1 X213.448 Y11.546 E31.4747
G1 X232.644 Y30.742 E33.9863
G1 X232.644 Y31.520 E34.0583
G1 X212.671 Y11.546 E36.6717
G1 X211.893 Y11.546 E36.7437
G1 X232.644 Y32.297 E39.4588
G1 X232.644 Y33.075 E39.5308
G1 X211.115 Y11.546 E42.3477
G1 X210.337 Y11.546 E42.4197
G1 X232.644 Y33.853 E45.3384
G1 X232.644 Y34.631 E45.4104
G1 X209.559 Y11.546 E48.4309
G1 X208.781 Y11.546 E48.5028
G1 X232.644 Y35.409 E51.6251
G1 X232.644 Y36.187 E51.6971
G1 X208.004 Y11.546 E54.9211
G1 X207.226 Y11.546 E54.9931
G1 X232.644 Y36.964 E58.3189
G1 X232.644 Y37.742 E58.3908
G1 X206.448 Y11.546 E61.8184
G1 X205.670 Y11.546 E61.8904
G1 X232.644 Y38.520 E65.4197
G1 X232.644 Y39.298 E65.4917
G1 X204.892 Y11.546 E69.1228
G1 X204.115 Y11.546 E69.1948
G1 X232.644 Y40.076 E72.9276
G1 X232.644 Y40.853 E72.9996
G1 X203.337 Y11.546 E76.8343
G1 X202.559 Y11.546 E76.9062
G1 X232.644 Y41.631 E80.8427
G1 X232.644 Y42.409 E80.9146
G1 X201.781 Y11.546 E84.9528
G1 X201.003 Y11.546 E85.0248
G1 X232.644 Y43.187 E89.1648
G1 X232.644 Y43.965 E89.2367
G1 X200.225 Y11.546 E93.4785
G1 X199.448 Y11.546 E93.5504
G1 X232.644 Y44.743 E97.8940
G1 X232.644 Y45.520 E97.9659
G1 X198.670 Y11.546 E102.4112
G1 X197.892 Y11.546 E102.4832
G1 X232.644 Y46.298 E107.0302
G1 X232.644 Y47.076 E107.1022
G1 X197.114 Y11.546 E111.7510
G1 X196.336 Y11.546 E111.8230
G1 X232.644 Y47.854 E116.5736
G1 X232.644 Y48.632 E116.6456
G1 X195.559 Y11.546 E121.4980
G1 X194.781 Y11.546 E121.5699
G1 X232.644 Y49.409 E126.5241
G1 X232.644 Y50.187 E126.5960
G1 X194.003 Y11.546 E131.6520
G1 X193.225 Y11.546 E131.7239
G1 X232.644 Y50.965 E136.8816
G1 X232.644 Y51.743 E136.9536
G1 X192.447 Y11.546 E142.2130
G1 X191.669 Y11.546 E142.2850
G1 X232.644 Y52.521 E147.6462
G1 X232.644 Y53.299 E147.7182
G1 X190.892 Y11.546 E153.1812
G1 X190.114 Y11.546 E153.2532
G1 X232.644 Y54.076 E158.8180
G1 X232.644 Y54.854 E158.8899
G1 X189.336 Y11.546 E164.5565
G1 X188.558 Y11.546 E164.6284
G1 X232.644 Y55.632 E170.3968
G1 X232.644 Y56.410 E170.4687
G1 X187.780 Y11.546 E176.3388
G1 X187.003 Y11.546 E176.4108
G1 X232.644 Y57.188 E182.3826
G1 X232.644 Y57.965 E182.4546
G1 X186.225 Y11.546 E188.5282
G1 X185.447 Y11.546 E188.6002
G1 X232.644 Y58.743 E194.7756
G1 X232.644 Y59.521 E194.8476
G1 X184.669 Y11.546 E201.1248
G1 X183.891 Y11.546 E201.1967
G1 X232.644 Y60.299 E207.5757
G1 X232.644 Y61.077 E207.6476
G1 X183.113 Y11.546 E214.1284
G1 X182.336 Y11.546 E214.2003
G1 X232.644 Y61.855 E220.7828
G1 X232.644 Y62.632 E220.8548
G1 X181.558 Y11.546 E227.5391
G1 X180.780 Y11.546 E227.6110
G1 X232.644 Y63.410 E234.3971
G1 X232.644 Y64.188 E234.4690
G1 X180.002 Y11.546 E241.3568
G1 X179.224 Y11.546 E241.4288
G1 X232.644 Y64.966 E248.4184
G1 X232.644 Y65.744 E248.4903
G1 X178.447 Y11.546 E255.5817
G1 X177.669 Y11.546 E255.6537
G1 X232.644 Y66.521 E262.8468
G1 X232.644 Y67.299 E262.9188
G1 X176.891 Y11.546 E270.2137
G1 X176.113 Y11.546 E270.2856
G1 X232.644 Y68.077 E277.6823
G1 X232.644 Y68.855 E277.7543
G1 X175.335 Y11.546 E285.2527
G1 X174.557 Y11.546 E285.3247
G1 X232.644 Y69.633 E292.9249
G1 X232.644 Y70.411 E292.9968
G1 X173.780 Y11.546 E300.6988
G1 X173.002 Y11.546 E300.7708
G1 X232.644 Y71.188 E308.5745
G1 X232.644 Y71.966 E308.6465
G1 X172.224 Y11.546 E316.5520
G1 X171.446 Y11.546 E316.6240
G1 X232.644 Y72.744 E324.6313
G1 X232.644 Y73.522 E324.7033
G1 X170.668 Y11.546 E332.8123
G1 X169.891 Y11.546 E332.8843
G1 X232.644 Y74.300 E341.0951
G1 X232.644 Y75.077 E341.1671
G1 X169.113 Y11.546 E349.4797
G1 X168.335 Y11.546 E349.5517
G1 X232.644 Y75.855 E357.9661
G1 X232.644 Y76.633 E358.0380
G1 X167.557 Y11.546 E366.5542
G1 X166.779 Y11.546 E366.6262
G1 X232.644 Y77.411 E375.2441
G1 X232.644 Y78.189 E375.3160
G1 X166.001 Y11.546 E384.0358
G1 X165.224 Y11.546 E384.1077
G1 X232.644 Y78.967 E392.9292
G1 X232.644 Y79.744 E393.0012
G1 X164.446 Y11.546 E401.9244
G1 X163.668 Y11.546 E401.9964
G1 X232.644 Y80.522 E411.0214
G1 X232.644 Y81.300 E411.0933
G1 X162.890 Y11.546 E420.2201
G1 X162.112 Y11.546 E420.2921
G1 X232.644 Y82.078 E429.5207
G1 X232.644 Y82.856 E429.5926
G1 X161.335 Y11.546 E438.9230
G1 X160.557 Y11.546 E438.9949
G1 X232.644 Y83.633 E448.4270
G1 X232.644 Y84.411 E448.4990
G1 X159.779 Y11.546 E458.0329
G1 X159.001 Y11.546 E458.1048
G1 X232.644 Y85.189 E467.7405
G1 X232.644 Y85.967 E467.8124
G1 X158.223 Y11.546 E477.5499
G1 X157.445 Y11.546 E477.6218
G1 X232.644 Y86.745 E487.4610
G1 X232.644 Y87.523 E487.5330
G1 X156.668 Y11.546 E497.4739
G1 X155.890 Y11.546 E497.5459
G1 X232.644 Y88.300 E507.5886
G1 X232.644 Y89.078 E507.6606
G1 X155.112 Y11.546 E517.8051
G1 X154.334 Y11.546 E517.8771
G1 X232.644 Y89.856 E528.1233
G1 X232.644 Y90.634 E528.1953
G1 X153.556 Y11.546 E538.5434
G1 X152.779 Y11.546 E538.6153
G1 X232.644 Y91.412 E549.0651
G1 X232.644 Y92.189 E549.1371
G1 X152.001 Y11.546 E559.6887
G1 X151.223 Y11.546 E559.7607
G1 X232.644 Y92.967 E570.4140
G1 X232.644 Y93.745 E570.4860
G1 X150.445 Y11.546 E581.2411
G1 X149.667 Y11.546 E581.3131
G1 X232.644 Y94.523 E592.1700
G1 X232.644 Y95.301 E592.2420
G1 X148.889 Y11.546 E603.2006
G1 X148.112 Y11.546 E603.2726
G1 X232.644 Y96.079 E614.3330
G1 X232.644 Y96.856 E614.4050
G1 X147.334 Y11.546 E625.5672
G1 X146.556 Y11.546 E625.6392
G1 X232.644 Y97.634 E636.9032
G1 X232.644 Y98.412 E636.9752
G1 X145.778 Y11.546 E648.3409
G1 X145.000 Y11.546 E648.4129
G1 X232.644 Y99.190 E659.8804
G1 X232.644 Y99.968 E659.9524
G1 X144.223 Y11.546 E671.5217
G1 X143.445 Y11.546 E671.5937
G1 X232.644 Y100.745 E683.2647
G1 X232.644 Y101.523 E683.3367
G1 X142.667 Y11.546 E695.1096
G1 X141.889 Y11.546 E695.1815
G1 X232.644 Y102.301 E707.0561
G1 X232.644 Y103.079 E707.1281
G1 X141.111 Y11.546 E719.1045
G1 X140.333 Y11.546 E719.1765
G1 X232.644 Y103.857 E731.2546
G1 X232.644 Y104.635 E731.3266
G1 X139.556 Y11.546 E743.5065
G1 X138.778 Y11.546 E743.5785
G1 X232.644 Y105.412 E755.8602
G1 X232.644 Y106.190 E755.9322
G1 X138.000 Y11.546 E768.3157
G1 X137.222 Y11.546 E768.3876
G1 X232.644 Y106.968 E780.8729
G1 X232.644 Y107.746 E780.9448
G1 X136.444 Y11.546 E793.5319
G1 X135.667 Y11.546 E793.6038
G1 X232.644 Y108.524 E806.2926
G1 X232.644 Y109.301 E806.3646
G1 X134.889 Y11.546 E819.1552
G1 X134.111 Y11.546 E819.2271
G1 X232.644 Y110.079 E832.1195
G1 X232.644 Y110.857 E832.1914
G1 X133.333 Y11.546 E845.1855
G1 X132.555 Y11.546 E845.2575
G1 X232.644 Y111.635 E858.3534
G1 X232.644 Y112.413 E858.4254
G1 X131.777 Y11.546 E871.6230
G1 X131.000 Y11.546 E871.6950
G1 X232.644 Y113.190 E884.9944
G1 X232.644 Y113.968 E885.0664
G1 X130.222 Y11.546 E898.4676
G1 X129.444 Y11.546 E898.5395
G1 X232.644 Y114.746 E912.0425
G1 X232.644 Y115.524 E912.1145
G1 X128.666 Y11.546 E925.7192
G1 X127.888 Y11.546 E925.7912
G1 X232.644 Y116.302 E939.4977
G1 X232.644 Y117.080 E939.5697
G1 X127.111 Y11.546 E953.3779
G1 X126.333 Y11.546 E953.4499
G1 X232.644 Y117.857 E967.3600
G1 X232.644 Y118.635 E967.4319
G1 X125.555 Y11.546 E981.4438
G1 X124.777 Y11.546 E981.5157
G1 X232.644 Y119.413 E995.6293
G1 X232.644 Y120.191 E995.7013
G1 X123.999 Y11.546 E1009.9167
