; G-Code generated by Simplify3D(R) Version 4.1.2
; Dec 15, 2022 at 2:57:07 PM
; Settings Summary
;   processName,Process1
;   applyToModels,Retangulo - v2
;   profileName,CORE A1v2 PLA - Ensaio Glissoi 15-12-2022
;   profileVersion,2018-03-23 07:46:45
;   baseProfile,ABS Q. MEDIA
;   printMaterial,
;   printQuality,
;   printExtruders,
;   extruderName,Extruder 1
;   extruderToolheadNumber,0
;   extruderDiameter,0.4
;   extruderAutoWidth,0
;   extruderWidth,0.44
;   extrusionMultiplier,1
;   extruderUseRetract,1
;   extruderRetractionDistance,3.5
;   extruderExtraRestartDistance,0
;   extruderRetractionZLift,0
;   extruderRetractionSpeed,3600
;   extruderUseCoasting,1
;   extruderCoastingDistance,0.1
;   extruderUseWipe,1
;   extruderWipeDistance,2
;   primaryExtruder,0
;   layerHeight,0.3
;   topSolidLayers,9
;   bottomSolidLayers,6
;   perimeterOutlines,3
;   printPerimetersInsideOut,0
;   startPointOption,3
;   startPointOriginX,0
;   startPointOriginY,0
;   sequentialIslands,0
;   spiralVaseMode,0
;   firstLayerHeightPercentage,100
;   firstLayerWidthPercentage,125
;   firstLayerUnderspeed,1
;   useRaft,0
;   raftExtruder,0
;   raftTopLayers,3
;   raftBaseLayers,2
;   raftOffset,3
;   raftSeparationDistance,0.14
;   raftTopInfill,100
;   aboveRaftSpeedMultiplier,0.3
;   useSkirt,1
;   skirtExtruder,0
;   skirtLayers,1
;   skirtOutlines,2
;   skirtOffset,4
;   usePrimePillar,0
;   primePillarExtruder,999
;   primePillarWidth,12
;   primePillarLocation,7
;   primePillarSpeedMultiplier,1
;   useOozeShield,0
;   oozeShieldExtruder,999
;   oozeShieldOffset,2
;   oozeShieldOutlines,1
;   oozeShieldSidewallShape,1
;   oozeShieldSidewallAngle,30
;   oozeShieldSpeedMultiplier,1
;   infillExtruder,0
;   internalInfillPattern,Rectilinear
;   externalInfillPattern,Rectilinear
;   infillPercentage,20
;   outlineOverlapPercentage,15
;   infillExtrusionWidthPercentage,100
;   minInfillLength,5
;   infillLayerInterval,2
;   internalInfillAngles,45,-45
;   overlapInternalInfillAngles,0
;   externalInfillAngles,45,-45
;   generateSupport,0
;   supportExtruder,0
;   supportInfillPercentage,30
;   supportExtraInflation,0.4
;   supportBaseLayers,0
;   denseSupportExtruder,0
;   denseSupportLayers,0
;   denseSupportInfillPercentage,70
;   supportLayerInterval,2
;   supportHorizontalPartOffset,0.4
;   supportUpperSeparationLayers,1
;   supportLowerSeparationLayers,1
;   supportType,0
;   supportGridSpacing,4
;   maxOverhangAngle,60
;   supportAngles,45
;   temperatureName,Extruder 1 Temperature,Heated Bed
;   temperatureNumber,0,0
;   temperatureSetpointCount,2,1
;   temperatureSetpointLayers,1,2,1
;   temperatureSetpointTemperatures,190,190,60
;   temperatureStabilizeAtStartup,1,1
;   temperatureHeatedBed,0,1
;   fanLayers,1,3
;   fanSpeeds,0,100
;   blipFanToFullPower,1
;   adjustSpeedForCooling,0
;   minSpeedLayerTime,25
;   minCoolingSpeedSlowdown,40
;   increaseFanForCooling,1
;   minFanLayerTime,45
;   maxCoolingFanSpeed,100
;   increaseFanForBridging,1
;   bridgingFanSpeed,100
;   use5D,1
;   relativeEdistances,0
;   allowEaxisZeroing,1
;   independentExtruderAxes,0
;   includeM10123,0
;   stickySupport,1
;   applyToolheadOffsets,0
;   gcodeXoffset,0
;   gcodeYoffset,0
;   gcodeZoffset,0
;   overrideMachineDefinition,1
;   machineTypeOverride,0
;   strokeXoverride,300
;   strokeYoverride,200
;   strokeZoverride,300
;   originOffsetXoverride,0
;   originOffsetYoverride,0
;   originOffsetZoverride,0
;   homeXdirOverride,-1
;   homeYdirOverride,-1
;   homeZdirOverride,-1
;   flipXoverride,1
;   flipYoverride,-1
;   flipZoverride,1
;   toolheadOffsets,0,0|0,0|0,0|0,0|0,0|0,0
;   overrideFirmwareConfiguration,0
;   firmwareTypeOverride,RepRap (Marlin/Repetier/Sprinter)
;   GPXconfigOverride,r2
;   baudRateOverride,115200
;   overridePrinterModels,0
;   printerModelsOverride
;   startingGcode,M109 S100; FAZ AQUECIMENTO DO BICO,M402,G28; HOME GERAL,M400,G29 P2 H80 V4 T ; AUTO NIVELAMENTO,M400,M104 S[extruder0_temperature]; FAZ PRE AQUECIMENTO DO BICO,G1 X1 Y1 Z0.8 F1000; VAI PRA PONTO DE PURGA,M109 S[extruder0_temperature]; FAZ AQUECIMENTO DO BICO,G92 E0; RESETA EXTRUSOR,G1 X1.0 E9.0 F1000.0 ; PURGA,G1 X100.0 E12.5 F1000.0 ; PURGA,M117 IMPRIMINDO...,M400,
;   layerChangeGcode,
;   retractionGcode,
;   toolChangeGcode,
;   endingGcode,M107 ; DESLIGA FAN,G1 E-9.0 F1000.0 ; RETRAIR,G1 Z300,G1 Y100,G1 X-8,M104 S0 ; DESLIGA AQUECIMENTO BICO,M140 S0 ; DESLIGA AQUECIMENTO MESA,M84 ; DESLIGA MOTORES,M300 S4 P1000 ; GERA BEEP
;   exportFileFormat,gcode
;   celebration,0
;   celebrationSong,Star Wars
;   postProcessing,
;   defaultSpeed,1200
;   outlineUnderspeed,1
;   solidInfillUnderspeed,1
;   supportUnderspeed,1
;   rapidXYspeed,9000
;   rapidZspeed,2400
;   minBridgingArea,5
;   bridgingExtraInflation,2
;   bridgingExtrusionMultiplier,0.9
;   bridgingSpeedMultiplier,1
;   useFixedBridgingAngle,0
;   fixedBridgingAngle,0
;   applyBridgingToPerimeters,1
;   filamentDiameters,1.74|1.74|1.74|1.74|1.74|1.74
;   filamentPricesPerKg,120|120|120|120|120|120
;   filamentDensities,1.08|1.25|1.25|1.25|1.25|1.25
;   useMinPrintHeight,0
;   minPrintHeight,0
;   useMaxPrintHeight,0
;   maxPrintHeight,0
;   useDiaphragm,0
;   diaphragmLayerInterval,20
;   robustSlicing,1
;   mergeAllIntoSolid,0
;   onlyRetractWhenCrossingOutline,1
;   retractBetweenLayers,1
;   useRetractionMinTravel,0
;   retractionMinTravel,3
;   retractWhileWiping,0
;   onlyWipeOutlines,1
;   avoidCrossingOutline,0
;   maxMovementDetourFactor,3
;   toolChangeRetractionDistance,12
;   toolChangeExtraRestartDistance,-0.5
;   toolChangeRetractionSpeed,600
;   externalThinWallType,1
;   internalThinWallType,1
;   thinWallAllowedOverlapPercentage,30
;   singleExtrusionMinLength,1
;   singleExtrusionMinPrintingWidthPercentage,50
;   singleExtrusionMaxPrintingWidthPercentage,200
;   singleExtrusionEndpointExtension,0.2
;   horizontalSizeCompensation,0
G90
M82
M106 S0
M140 S60
M190 S60
M109 S100; FAZ AQUECIMENTO DO BICO
M402
G28; HOME GERAL
M400
G29 P2 H80 V4 T ; AUTO NIVELAMENTO
M400
M104 S190; FAZ PRE AQUECIMENTO DO BICO
G1 X1 Y1 Z0.8 F1000; VAI PRA PONTO DE PURGA
M109 S190; FAZ AQUECIMENTO DO BICO
G92 E0; RESETA EXTRUSOR
G1 X1.0 E9.0 F1000.0 ; PURGA
G1 X100.0 E12.5 F1000.0 ; PURGA
M117 IMPRIMINDO...
M400
; process Process1
; layer 1, Z = 0.300
T0
G92 E0.0000
G1 E-3.5000 F3600
; feature skirt
; tool H0.300 W0.550
G1 Z0.300 F2400
G1 X215.197 Y148.280 F9000
G1 E0.0000 F3600
G92 E0.0000
G1 X218.023 Y145.454 E0.2774 F1200
G1 X247.020 Y145.454 E2.2895
G1 X249.847 Y148.280 E2.5668
G1 X249.847 Y177.277 E4.5789
G1 X247.020 Y180.104 E4.8563
G1 X218.023 Y180.104 E6.8684
G1 X215.197 Y177.277 E7.1458
G1 X215.197 Y148.280 E9.1579
G92 E0.0000
G1 E-3.5000 F3600
G1 X215.747 Y148.508 F9000
G1 E0.0000 F3600
G92 E0.0000
G1 X218.251 Y146.004 E0.2457 F1200
G1 X246.793 Y146.004 E2.2262
G1 X249.297 Y148.508 E2.4720
G1 X249.297 Y177.049 E4.4525
G1 X246.793 Y179.554 E4.6982
G1 X218.251 Y179.554 E6.6787
G1 X215.747 Y177.049 E6.9245
G1 X215.747 Y148.508 E8.9049
G92 E0.0000
G1 E-3.5000 F3600
; feature outer perimeter
G1 X220.297 Y150.554 F9000
G1 E0.0000 F3600
G92 E0.0000
G1 X244.747 Y150.554 E1.6966 F1200
G1 X244.747 Y175.004 E3.3932
G1 X220.297 Y175.004 E5.0897
G1 X220.297 Y150.654 E6.7794
G1 X220.297 Y150.554 F1200
G1 X222.297 Y150.554 F1200
; feature inner perimeter
G1 X220.847 Y151.104 F9000
G92 E0.0000
G1 X244.197 Y151.104 E1.6203 F1200
G1 X244.197 Y174.454 E3.2405
G1 X220.847 Y174.454 E4.8608
G1 X220.847 Y151.204 E6.4741
G1 X220.847 Y151.104 F1200
G1 X221.397 Y151.654 F9000
G92 E0.0000
G1 X243.647 Y151.654 E1.5439 F1200
G1 X243.647 Y173.904 E3.0878
G1 X221.397 Y173.904 E4.6318
G1 X221.397 Y151.754 E6.1688
G1 X221.397 Y151.654 F1200
; feature solid layer
G1 X242.865 Y152.121 F9000
G92 E0.0000
G1 X243.179 Y152.435 E0.0308 F1200
G1 X243.179 Y153.213 E0.0848
G1 X242.088 Y152.121 E0.1919
G1 X241.310 Y152.121 E0.2459
G1 X243.179 Y153.991 E0.4293
G1 X243.179 Y154.769 E0.4833
G1 X240.532 Y152.121 E0.7431
G1 X239.754 Y152.121 E0.7971
G1 X243.179 Y155.546 E1.1332
G1 X243.179 Y156.324 E1.1872
G1 X238.976 Y152.121 E1.5996
G1 X238.199 Y152.121 E1.6536
G1 X243.179 Y157.102 E2.1424
G1 X243.179 Y157.880 E2.1964
G1 X237.421 Y152.121 E2.7615
G1 X236.643 Y152.121 E2.8154
G1 X243.179 Y158.658 E3.4569
G1 X243.179 Y159.436 E3.5108
G1 X235.865 Y152.121 E4.2286
G1 X235.087 Y152.121 E4.2826
G1 X243.179 Y160.213 E5.0767
G1 X243.179 Y160.991 E5.1306
G1 X234.309 Y152.121 E6.0011
G1 X233.532 Y152.121 E6.0550
G1 X243.179 Y161.769 E7.0018
G1 X243.179 Y162.547 E7.0558
G1 X232.754 Y152.121 E8.0788
G1 X231.976 Y152.121 E8.1328
G1 X243.179 Y163.325 E9.2322
G1 X243.179 Y164.102 E9.2862
G1 X231.198 Y152.121 E10.4619
G1 X230.420 Y152.121 E10.5159
G1 X243.179 Y164.880 E11.7680
G1 X243.179 Y165.658 E11.8219
G1 X229.643 Y152.121 E13.1503
G1 X228.865 Y152.121 E13.2043
G1 X243.179 Y166.436 E14.6090
G1 X243.179 Y167.214 E14.6630
G1 X228.087 Y152.121 E16.1441
G1 X227.309 Y152.121 E16.1980
G1 X243.179 Y167.992 E17.7554
G1 X243.179 Y168.769 E17.8094
G1 X226.531 Y152.121 E19.4431
G1 X225.753 Y152.121 E19.4971
G1 X243.179 Y169.547 E21.2071
G1 X243.179 Y170.325 E21.2611
G1 X224.976 Y152.121 E23.0475
G1 X224.198 Y152.121 E23.1014
G1 X243.179 Y171.103 E24.9641
G1 X243.179 Y171.881 E25.0181
G1 X223.420 Y152.121 E26.9571
G1 X222.642 Y152.121 E27.0111
G1 X243.179 Y172.658 E29.0264
G1 X243.179 Y173.436 E29.0804
G1 X221.864 Y152.121 E31.1721
G1 X221.864 Y152.899 E31.2261
G1 X242.402 Y173.436 E33.2414
G1 X241.624 Y173.436 E33.2954
G1 X221.864 Y153.677 E35.2344
G1 X221.864 Y154.455 E35.2884
G1 X240.846 Y173.436 E37.1511
G1 X240.068 Y173.436 E37.2051
G1 X221.864 Y155.233 E38.9914
G1 X221.864 Y156.010 E39.0454
G1 X239.290 Y173.436 E40.7555
G1 X238.512 Y173.436 E40.8094
G1 X221.864 Y156.788 E42.4431
G1 X221.864 Y157.566 E42.4971
G1 X237.735 Y173.436 E44.0545
G1 X236.957 Y173.436 E44.1085
G1 X221.864 Y158.344 E45.5895
G1 X221.864 Y159.122 E45.6435
G1 X236.179 Y173.436 E47.0482
G1 X235.401 Y173.436 E47.1022
G1 X221.864 Y159.899 E48.4306
G1 X221.864 Y160.677 E48.4846
G1 X234.623 Y173.436 E49.7366
G1 X233.846 Y173.436 E49.7906
G1 X221.864 Y161.455 E50.9663
G1 X221.864 Y162.233 E51.0203
G1 X233.068 Y173.436 E52.1197
G1 X232.290 Y173.436 E52.1737
G1 X221.864 Y163.011 E53.1968
G1 X221.864 Y163.788 E53.2507
G1 X231.512 Y173.436 E54.1975
G1 X230.734 Y173.436 E54.2515
G1 X221.864 Y164.566 E55.1219
G1 X221.864 Y165.344 E55.1759
G1 X229.956 Y173.436 E55.9700
G1 X229.179 Y173.436 E56.0239
G1 X221.864 Y166.122 E56.7417
G1 X221.864 Y166.900 E56.7957
G1 X228.401 Y173.436 E57.4371
G1 X227.623 Y173.436 E57.4911
G1 X221.864 Y167.678 E58.0562
G1 X221.864 Y168.455 E58.1102
G1 X226.845 Y173.436 E58.5989
G1 X226.067 Y173.436 E58.6529
G1 X221.864 Y169.233 E59.0654
G1 X221.864 Y170.011 E59.1193
G1 X225.290 Y173.436 E59.4555
G1 X224.512 Y173.436 E59.5094
G1 X221.864 Y170.789 E59.7692
G1 X221.864 Y171.567 E59.8232
G1 X223.734 Y173.436 E60.0067
G1 X222.956 Y173.436 E60.0606
G1 X221.864 Y172.344 E60.1678
G1 X221.864 Y173.122 E60.2217
G1 X222.108 Y173.366 E60.2456
G1 X222.178 Y173.436 F1200
G92 E0.0000
G1 E-3.5000 F3600
; layer end
M107 ; DESLIGA FAN
G1 E-9.0 F1000.0 ; RETRAIR
G1 Z300
G1 Y100
G1 X-8
M104 S0 ; DESLIGA AQUECIMENTO BICO
M140 S0 ; DESLIGA AQUECIMENTO MESA
M84 ; DESLIGA MOTORES
M300 S4 P1000 ; GERA BEEP
; Build Summary
;   Build time: 0 hours 1 minute
;   Filament length: 97.7 mm (0.10 m)
;   Plastic volume: 232.39 mm^3 (0.23 cc)
;   Plastic weight: 0.25 g (0.00 lb)
;   Material cost: 0.03
